assets/img/braze_icons/tram.svg

<svg fill="none" height="24" viewBox="0 0 24 24" width="24" xmlns="http://www.w3.org/2000/svg"><g clip-rule="evenodd" fill="#801ed7" fill-rule="evenodd"><path d="m8.57516 1.00001c-.36681-.000102-.64425-.00018-.92156.03864-.24507.03431-.48642.09129-.72096.1702-.2654.08929-.51351.21344-.84155.37757l-1.03833.51917c-.49397.24699-.6942.84767-.44721 1.34164.24699.49398.84766.69421 1.34164.44722l.9865-.49325c.40186-.20093.51977-.25742.63672-.29677.11727-.03945.23795-.06794.36048-.08509.09563-.01339.19649-.01765.45118-.01888l.99976 1.99954h-.62312c-.80496-.00001-1.46934-.00002-2.01053.0442-.5621.04592-1.0788.14448-1.56414.39178-.75265.38349-1.36457.99541-1.74806 1.74806-.24729.48534-.34586 1.00204-.39178 1.56414-.01773.21691-.02889.4343-.0358.65193-.01722.54209-.02583.81309.08057 1.03399.09166.1902.25118.3549.43842.4525.21733.1134.50243.1134 1.07261.1134h14.8c.5702 0 .8553 0 1.0726-.1134.1873-.0976.3468-.2623.4384-.4525.1064-.2209.0978-.4919.0806-1.03399-.0069-.21763-.0181-.43502-.0358-.65193-.0459-.5621-.1445-1.0788-.3918-1.56414-.3835-.75265-.9954-1.36457-1.748-1.74806-.4854-.2473-1.0021-.34586-1.5642-.39178-.5412-.04422-1.2055-.04421-2.0105-.0442h-.6232l.9998-1.99954c.2547.00123.3555.00549.4512.01888.1225.01715.2432.04564.3604.08509.117.03935.2349.09584.6368.29677l.9865.49325c.4939.24699 1.0946.04676 1.3416-.44722.247-.49397.0468-1.09465-.4472-1.34164l-1.0383-.51917c-.3281-.16413-.5762-.28828-.8416-.37757-.2345-.07891-.4759-.13589-.7209-.1702-.2774-.03882-.5548-.038742-.9216-.03864zm3.80694 3.99999 1-1.99998h-2.7642l1 1.99998z"/><path d="m16.3788 20.9939c-.3432.0061-.7216.0061-1.1375.0061h-6.48262c-.41585 0-.79425 0-1.13745-.0061l-.72661 1.4535c-.24696.494-.84762.6942-1.34162.4473-.49399-.247-.69425-.8476-.44729-1.3416l.42004-.8403c-.11569-.0424-.22954-.0916-.34171-.1488-.75265-.3835-1.36457-.9954-1.74806-1.748-.24729-.4854-.34586-1.0021-.39178-1.5642-.04422-.5412-.04421-1.2055-.0442-2.0105v-.6413c0-.5601 0-.8401.109-1.054.09587-.1882.24885-.3411.43701-.437.21391-.109.49394-.109 1.05399-.109h14.8c.5601 0 .8401 0 1.054.109.1882.0959.3411.2488.437.437.109.2139.109.4939.109 1.054v.6413c0 .805 0 1.4693-.0442 2.0105-.0459.5621-.1445 1.0788-.3918 1.5642-.3835.7526-.9954 1.3645-1.748 1.748-.1122.0572-.226.1064-.3417.1488l.4201.8402c.247.494.0468 1.0947-.4472 1.3416-.494.247-1.0947.0468-1.3417-.4472zm-7.8788-5.9939c-.82842 0-1.5.6716-1.5 1.5s.67158 1.5 1.5 1.5c.82843 0 1.5-.6716 1.5-1.5s-.67157-1.5-1.5-1.5zm7 0c-.8284 0-1.5.6716-1.5 1.5s.6716 1.5 1.5 1.5 1.5-.6716 1.5-1.5-.6716-1.5-1.5-1.5z"/></g></svg>

<svg width="24" height="24" viewBox="0 0 24 24" fill="none" xmlns="http://www.w3.org/2000/svg">
<path fill-rule="evenodd" clip-rule="evenodd" d="M8.57516 1.00001C8.20835 0.999908 7.93091 0.99983 7.6536 1.03865C7.40853 1.07296 7.16718 1.12994 6.93264 1.20885C6.66724 1.29814 6.41913 1.42229 6.09109 1.58642L5.05276 2.10559C4.55879 2.35258 4.35856 2.95326 4.60555 3.44723C4.85254 3.94121 5.45321 4.14144 5.94719 3.89445L6.93369 3.4012C7.33555 3.20027 7.45346 3.14378 7.57041 3.10443C7.68768 3.06498 7.80836 3.03649 7.93089 3.01934C8.02652 3.00595 8.12738 3.00169 8.38207 3.00046L9.38183 5H8.75871C7.95375 4.99999 7.28937 4.99998 6.74818 5.0442C6.18608 5.09012 5.66938 5.18868 5.18404 5.43598C4.43139 5.81947 3.81947 6.43139 3.43598 7.18404C3.18869 7.66938 3.09012 8.18608 3.0442 8.74818C3.02647 8.96509 3.01531 9.18248 3.0084 9.40011C2.99118 9.9422 2.98257 10.2132 3.08897 10.4341C3.18063 10.6243 3.34015 10.789 3.52739 10.8866C3.74472 11 4.02982 11 4.6 11H19.4C19.9702 11 20.2553 11 20.4726 10.8866C20.6599 10.789 20.8194 10.6243 20.911 10.4341C21.0174 10.2132 21.0088 9.9422 20.9916 9.40011C20.9847 9.18248 20.9735 8.96509 20.9558 8.74818C20.9099 8.18608 20.8113 7.66938 20.564 7.18404C20.1805 6.43139 19.5686 5.81947 18.816 5.43598C18.3306 5.18868 17.8139 5.09012 17.2518 5.0442C16.7106 4.99998 16.0463 4.99999 15.2413 5H14.6181L15.6179 3.00046C15.8726 3.00169 15.9734 3.00595 16.0691 3.01934C16.1916 3.03649 16.3123 3.06498 16.4295 3.10443C16.5465 3.14378 16.6644 3.20027 17.0663 3.4012L18.0528 3.89445C18.5467 4.14144 19.1474 3.94121 19.3944 3.44723C19.6414 2.95326 19.4412 2.35258 18.9472 2.10559L17.9089 1.58642C17.5808 1.42229 17.3327 1.29814 17.0673 1.20885C16.8328 1.12994 16.5914 1.07296 16.3464 1.03865C16.069 0.99983 15.7916 0.999908 15.4248 1.00001H8.57516ZM12.3821 5L13.3821 3.00002H10.6179L11.6179 5H12.3821Z" fill="#801ED7"/>
<path fill-rule="evenodd" clip-rule="evenodd" d="M16.3788 20.9939C16.0356 21 15.6572 21 15.2413 21H8.75868C8.34283 21 7.96443 21 7.62123 20.9939L6.89462 22.4474C6.64766 22.9414 6.047 23.1416 5.553 22.8947C5.05901 22.6477 4.85875 22.0471 5.10571 21.5531L5.52575 20.7128C5.41006 20.6704 5.29621 20.6212 5.18404 20.564C4.43139 20.1805 3.81947 19.5686 3.43598 18.816C3.18869 18.3306 3.09012 17.8139 3.0442 17.2518C2.99998 16.7106 2.99999 16.0463 3 15.2413V14.6C3 14.0399 3 13.7599 3.109 13.546C3.20487 13.3578 3.35785 13.2049 3.54601 13.109C3.75992 13 4.03995 13 4.6 13H19.4C19.9601 13 20.2401 13 20.454 13.109C20.6422 13.2049 20.7951 13.3578 20.891 13.546C21 13.7599 21 14.0399 21 14.6V15.2413C21 16.0463 21 16.7106 20.9558 17.2518C20.9099 17.8139 20.8113 18.3306 20.564 18.816C20.1805 19.5686 19.5686 20.1805 18.816 20.564C18.7038 20.6212 18.59 20.6704 18.4743 20.7128L18.8944 21.553C19.1414 22.047 18.9412 22.6477 18.4472 22.8946C17.9532 23.1416 17.3525 22.9414 17.1055 22.4474L16.3788 20.9939ZM8.5 15C7.67158 15 7 15.6716 7 16.5C7 17.3284 7.67158 18 8.5 18C9.32843 18 10 17.3284 10 16.5C10 15.6716 9.32843 15 8.5 15ZM15.5 15C14.6716 15 14 15.6716 14 16.5C14 17.3284 14.6716 18 15.5 18C16.3284 18 17 17.3284 17 16.5C17 15.6716 16.3284 15 15.5 15Z" fill="#801ED7"/>
</svg>
